X:1
T:Title
%%score { ( 1 4 5 ) | ( 2 3 ) }
L:1/8
M:6/8
K:Ab
V:1 treble nm="Grand Piano"
V:4 treble 
V:5 treble 
V:2 bass 
V:3 bass 
V:1
 z3 z2[Q:1/4=100] [CE] | [Ec]2 [Ec] BEB | [CA]2 [Ec] [CE]2 [CE] | F>GA .[=DA]2 [B,DA] | %4
[M:5/8] [Ec]3 [EB]2 |[M:1/8] [Ge] |[M:3/4] z2 z c z2 | [CFA]2 [FB] [=Ec]2 [_Ec] | c2 AE Ac | %9
 B3 [CA]3 | [Ec]3 .[DB]3 | [CA]3 [Ec]3 | z2 z [Bd]3 | [Ed]d d [Ac]2 [CE] | [Ec]>c c [Ed]2 d | %15
 [Ee]>e e [DF]2 F | B2 z A z2 | B3 E3 | [Ec]3 .[DB]3 | [CA]3 [Ec]3 | z2 z [Bd]3 | [Ed]d d [Ac]2 E | %22
 c>c c d2 d |[M:7/8] eee [Af]3 [FA]/B/ |[M:3/4] c2 e/d/ [EAc]2 [DGB] | %25
[M:5/8] [CEA]-[CEA]- [CEA]3 |] %26
V:2
 z3 z2 [A,,A,] | [A,,A,]2 [A,,A,] [E,G,D]2 [E,G,D] | [A,,E,]2 [A,,A,] [A,,A,]2 [A,,A,] | %3
 D,>E,[F,A,D] z GB,, |[M:5/8] [E,A,]3 [E,G,]2 |[M:1/8] [E,D] | %6
[M:3/4] [A,C]2 .[A,,A,]2[K:treble] B[K:bass]C, | F,2 [D,F,] [C,G,]2 [B,,G,] | %8
 [E,A,E]2 [E,A,C] [E,A,C]2 [E,A,E] | [E,G,D]3 [A,,E,]3 | z2 z2 .G,2 | A,,C, E,A, E,C, | %12
 z z/[K:treble] B/ A[K:bass]E, G,B, | z[K:treble] F G[K:bass]G,, E,A, | .A,,>E EB,, B,E | %15
 z C z2 z2 | [B,,F,]2 .=D2[K:treble] GA, | [E,G,E]3 [E,B,D]3 | z2 z2 .G,2 | A,,C, E,A, E,C, | %20
 z z/[K:treble] B/ A[K:bass]E, G,B, | z[K:treble] F G[K:bass]G,, E,[K:treble][A,C] | %22
 [A,E]>[A,EA] [A,EA] [B,EG]2 [B,EG] |[M:7/8] [CEA][CEA][CEA][K:bass] [D,D]3 z/ =E/ | %24
[M:3/4] z2 .[E,E]2 z2 |[M:5/8] A,,-A,,- A,,3 |] %26
V:3
 x6 | x6 | x6 | .[A,D]3 .[B,,F,]3 |[M:5/8] x5 |[M:1/8] x |[M:3/4] z2 z .[C,G,]3[K:treble][K:bass] | %7
 x6 | x6 | x6 | A,,A, E,E, z/ D/E, | x6 | [A,,A,]2[K:treble] z2[K:bass] z2 | %13
 [E,,E,]2[K:treble] z2[K:bass] z2 | z A, z2 z2 | .C,>E ED, CD | z2 z B,,3[K:treble] | x6 | %18
 A,,A, E,E, z/ D/E, | x6 | [A,,A,]2[K:treble] z2[K:bass] z2 | %21
 [E,,E,]2[K:treble] z2[K:bass] z2[K:treble] | x6 |[M:7/8] z z z[K:bass] z z2 [D,A,] | %24
[M:3/4] [E,A,E]2 C/B,/ E,2 E, |[M:5/8] x5 |] %26
V:4
 x6 | x6 | x6 | x6 |[M:5/8] x5 |[M:1/8] x |[M:3/4] [Ae]2 [Ec] =E2 [CEG] | x6 | x6 | x6 | %10
 z C z2 z/ E/[DB] | x6 | [ce]>d .c2 z D | x6 | x6 | x6 | =D->[Dc] B [B,D]2 [DF] | x6 | %18
 z C z2 z/ E/[DB] | x6 | [ce]>d .c2 z D | x6 | x6 |[M:7/8] x7 |[M:3/4] x6 |[M:5/8] x5 |] %26
V:5
 x6 | x6 | x6 | x6 |[M:5/8] x5 |[M:1/8] x |[M:3/4] x6 | x6 | x6 | x6 | z2 z2 .B,2 | x6 | x6 | x6 | %14
 x6 | x6 | x6 | x6 | z2 z2 .B,2 | x6 | x6 | x6 | x6 |[M:7/8] x7 |[M:3/4] x6 |[M:5/8] x5 |] %26

